svg/fluentui-system-icons/ic_fluent_app_recent_20_filled.svg

<svg width="20" height="20" viewBox="0 0 20 20" fill="none" xmlns="http://www.w3.org/2000/svg">
<path d="M7 2C5.89543 2 5 2.89543 5 4V16C5 17.1046 5.89543 18 7 18H13C14.1046 18 15 17.1046 15 16V4C15 2.89543 14.1046 2 13 2H7ZM2 6C2 4.89543 2.89543 4 4 4V16C2.89543 16 2 15.1046 2 14V6ZM16 16V4C17.1046 4 18 4.89543 18 6V14C18 15.1046 17.1046 16 16 16Z" fill="#212121"/>
</svg>

<svg xmlns="http://www.w3.org/2000/svg" width="20" height="20"><path d="M7 2a2 2 0 0 0-2 2v12a2 2 0 0 0 2 2h6a2 2 0 0 0 2-2V4a2 2 0 0 0-2-2H7ZM2 6a2 2 0 0 1 2-2v12a2 2 0 0 1-2-2V6Zm14 10V4a2 2 0 0 1 2 2v8a2 2 0 0 1-2 2Z"/></svg>
